src/img/logo_svg_xl.svg

<svg width="194" height="169" viewBox="0 0 194 169" fill="none" xmlns="http://www.w3.org/2000/svg">
<path d="M138.652 37.581C143.21 37.581 147.424 38.742 151.294 41.064C155.078 43.472 158.131 46.654 160.453 50.61C162.689 54.566 163.807 58.909 163.807 63.639L163.807 69.444C163.807 69.874 163.635 70.089 163.291 70.089L148.843 70.089C148.413 70.089 148.198 69.874 148.198 69.444L148.198 63.639C148.198 60.801 147.295 58.35 145.489 56.286C143.683 54.308 141.404 53.319 138.652 53.319C135.642 53.319 133.277 54.351 131.557 56.415C129.837 58.565 128.977 60.973 128.977 63.639L128.977 67.122C128.977 69.788 129.837 72.196 131.557 74.346C133.191 76.496 135.298 77.571 137.878 77.571L142.909 77.571C143.339 77.571 143.554 77.786 143.554 78.216L143.425 92.664C143.425 93.008 143.253 93.18 142.909 93.18L137.878 93.18C135.556 93.18 133.492 94.083 131.686 95.889C129.88 97.695 128.977 100.06 128.977 102.984L128.977 104.79C128.977 107.542 129.923 109.864 131.815 111.756C133.621 113.734 135.9 114.723 138.652 114.723C141.318 114.723 143.597 113.734 145.489 111.756C147.295 109.864 148.198 107.542 148.198 104.79L148.198 98.598C148.198 98.168 148.37 97.953 148.714 97.953L163.162 97.953C163.506 97.953 163.678 98.168 163.678 98.598L163.678 105.435C163.678 110.165 162.517 114.379 160.195 118.077C157.787 121.775 154.691 124.699 150.907 126.849C147.037 129.085 142.952 130.203 138.652 130.203C134.008 130.203 129.794 129.042 126.01 126.72C122.14 124.484 119.087 121.474 116.851 117.69C114.615 113.906 113.497 109.735 113.497 105.177L113.497 103.113C113.497 99.329 114.142 96.061 115.432 93.309C116.636 90.557 118.356 87.934 120.592 85.44C118.356 82.86 116.593 80.022 115.303 76.926C114.013 73.916 113.368 70.777 113.368 67.509L113.368 63.639C113.368 58.823 114.529 54.437 116.851 50.481C119.087 46.525 122.14 43.386 126.01 41.064C129.794 38.742 134.008 37.581 138.652 37.581Z" fill="#283D3B"/>
<path d="M54.348 131.419C49.79 131.419 45.576 130.258 41.706 127.936C37.922 125.528 34.869 122.346 32.547 118.39C30.311 114.434 29.193 110.091 29.193 105.361V99.556C29.193 99.126 29.365 98.911 29.709 98.911H44.157C44.587 98.911 44.802 99.126 44.802 99.556V105.361C44.802 108.199 45.705 110.65 47.511 112.714C49.317 114.692 51.596 115.681 54.348 115.681C57.358 115.681 59.723 114.649 61.443 112.585C63.163 110.435 64.023 108.027 64.023 105.361V101.878C64.023 99.212 63.163 96.804 61.443 94.654C59.809 92.504 57.702 91.429 55.122 91.429H50.091C49.661 91.429 49.446 91.214 49.446 90.784L49.575 76.336C49.575 75.992 49.747 75.82 50.091 75.82H55.122C57.444 75.82 59.508 74.917 61.314 73.111C63.12 71.305 64.023 68.94 64.023 66.016V64.21C64.023 61.458 63.077 59.136 61.185 57.244C59.379 55.266 57.1 54.277 54.348 54.277C51.682 54.277 49.403 55.266 47.511 57.244C45.705 59.136 44.802 61.458 44.802 64.21V70.402C44.802 70.832 44.63 71.047 44.286 71.047H29.838C29.494 71.047 29.322 70.832 29.322 70.402V63.565C29.322 58.835 30.483 54.621 32.805 50.923C35.213 47.225 38.309 44.301 42.093 42.151C45.963 39.915 50.048 38.797 54.348 38.797C58.992 38.797 63.206 39.958 66.99 42.28C70.86 44.516 73.913 47.526 76.149 51.31C78.385 55.094 79.503 59.265 79.503 63.823V65.887C79.503 69.671 78.858 72.939 77.568 75.691C76.364 78.443 74.644 81.066 72.408 83.56C74.644 86.14 76.407 88.978 77.697 92.074C78.987 95.084 79.632 98.223 79.632 101.491V105.361C79.632 110.177 78.471 114.563 76.149 118.519C73.913 122.475 70.86 125.614 66.99 127.936C63.206 130.258 58.992 131.419 54.348 131.419ZM89.6204 130C89.1904 130 88.9754 129.785 88.9754 129.355L89.1044 40.732C89.1044 40.388 89.2764 40.216 89.6204 40.216H104.068C104.412 40.216 104.584 40.388 104.584 40.732L104.713 129.355C104.713 129.785 104.541 130 104.197 130H89.6204Z" fill="#283D3B"/>
<path d="M6.432 164.394H1V152.29H6.432C7.52056 152.29 8.43128 152.403 9.16417 152.629C9.89706 152.845 10.4844 153.194 10.9263 153.678C11.3682 154.162 11.6808 154.786 11.864 155.55C12.058 156.314 12.155 157.239 12.155 158.326C12.155 159.413 12.058 160.343 11.864 161.118C11.6808 161.882 11.3682 162.506 10.9263 162.99C10.4844 163.474 9.89706 163.829 9.16417 164.055C8.43128 164.281 7.52056 164.394 6.432 164.394ZM6.49667 155.389H4.88V161.295H6.49667C7.03556 161.295 7.41817 161.236 7.6445 161.118C7.88161 160.989 8.00017 160.704 8.00017 160.263V156.422C8.00017 155.981 7.88161 155.701 7.6445 155.583C7.41817 155.454 7.03556 155.389 6.49667 155.389Z" fill="#283D3B"/>
<path d="M21.7647 157.019V159.827H17.8847V161.295H22.6377V164.394H14.0047V152.29H22.5407L22.0557 155.389H17.8847V157.019H21.7647Z" fill="#283D3B"/>
<path d="M33.4005 152.29V155.389H30.5875V164.394H26.7075V155.389H23.8945V152.29H33.4005Z" fill="#283D3B"/>
<path d="M43.4175 160.359L45.5192 164.394H41.2512L39.6669 160.795H38.8262V164.394H34.9462V152.29H41.0572C43.8379 152.29 45.2282 153.705 45.2282 156.535C45.2282 158.471 44.6247 159.746 43.4175 160.359ZM39.7154 155.389H38.8262V157.81H39.7154C40.1896 157.81 40.5291 157.761 40.7339 157.664C40.9494 157.568 41.0572 157.347 41.0572 157.003V156.196C41.0572 155.852 40.9494 155.631 40.7339 155.534C40.5291 155.437 40.1896 155.389 39.7154 155.389Z" fill="#283D3B"/>
<path d="M46.7848 158.358C46.7848 157.25 46.8764 156.298 47.0596 155.502C47.2536 154.695 47.5715 154.033 48.0134 153.517C48.4661 153.001 49.0589 152.619 49.7918 152.371C50.5246 152.124 51.43 152 52.5078 152C53.5963 152 54.5017 152.124 55.2238 152.371C55.9567 152.619 56.544 153.001 56.9859 153.517C57.4386 154.033 57.7565 154.695 57.9398 155.502C58.1338 156.298 58.2308 157.25 58.2308 158.358C58.2308 159.413 58.1445 160.338 57.9721 161.134C57.7996 161.919 57.4925 162.576 57.0506 163.103C56.6195 163.63 56.0321 164.028 55.2884 164.297C54.5555 164.555 53.6287 164.684 52.5078 164.684C51.3869 164.684 50.4546 164.555 49.7109 164.297C48.978 164.028 48.3906 163.63 47.9488 163.103C47.5176 162.576 47.2159 161.919 47.0434 161.134C46.871 160.338 46.7848 159.413 46.7848 158.358ZM50.9558 156.341V161.376H52.5724C53.1113 161.376 53.4939 161.317 53.7203 161.199C53.9574 161.07 54.0759 160.784 54.0759 160.343V155.308H52.4431C51.9258 155.308 51.5485 155.373 51.3114 155.502C51.0743 155.62 50.9558 155.9 50.9558 156.341Z" fill="#283D3B"/>
<path d="M63.9515 164.394H60.0715V152.29H63.9515V164.394Z" fill="#283D3B"/>
<path d="M75.0152 152.29V155.389H72.2022V164.394H68.3222V155.389H65.5092V152.29H75.0152Z" fill="#283D3B"/>
<path d="M81.4077 164.184L81.9574 160.989C83.1429 161.279 84.2153 161.425 85.1745 161.425C85.6595 161.425 86.0853 161.419 86.4517 161.408C86.8289 161.387 87.163 161.355 87.454 161.312V160.343L85.708 160.198C84.9213 160.123 84.2638 159.994 83.7357 159.811C83.2076 159.628 82.7819 159.38 82.4585 159.068C82.146 158.746 81.9196 158.364 81.7795 157.923C81.6502 157.471 81.5855 156.944 81.5855 156.341C81.5855 155.513 81.6717 154.824 81.8442 154.275C82.0166 153.716 82.2915 153.27 82.6687 152.936C83.0459 152.592 83.5309 152.35 84.1237 152.21C84.7272 152.07 85.4601 152 86.3224 152C88.036 152 89.588 152.161 90.9784 152.484L90.4934 155.583C89.2863 155.389 88.3216 155.292 87.5995 155.292C86.8774 155.292 86.2631 155.324 85.7565 155.389V156.341L87.1469 156.47C87.9983 156.556 88.7096 156.702 89.2809 156.906C89.8521 157.1 90.3101 157.358 90.655 157.681C91.0107 158.003 91.2586 158.385 91.3987 158.826C91.5496 159.267 91.625 159.773 91.625 160.343C91.625 161.161 91.5173 161.85 91.3017 162.409C91.0861 162.968 90.8275 163.393 90.5257 163.684C90.2778 163.921 89.9706 164.109 89.6042 164.249C89.2378 164.378 88.8497 164.475 88.4402 164.539C88.0306 164.604 87.6157 164.641 87.1954 164.652C86.7858 164.674 86.414 164.684 86.0799 164.684C85.2392 164.684 84.4309 164.641 83.6549 164.555C82.8789 164.469 82.1298 164.346 81.4077 164.184Z" fill="#283D3B"/>
<path d="M102.204 152.29V155.389H99.3912V164.394H95.5112V155.389H92.6982V152.29H102.204Z" fill="#283D3B"/>
<path d="M102.78 152.29H107.064L108.131 156.551H108.277L109.36 152.29H113.644L110.152 161.102V164.394H106.272V161.102L102.78 152.29Z" fill="#283D3B"/>
<path d="M122.857 161.295V164.394H115.097V152.29H118.977V161.295H122.857Z" fill="#283D3B"/>
<path d="M132.167 157.019V159.827H128.287V161.295H133.04V164.394H124.407V152.29H132.943L132.458 155.389H128.287V157.019H132.167Z" fill="#283D3B"/>
<path d="M146.904 161.473H144.382V164.394H140.502V152.29H146.613C149.394 152.29 150.784 153.781 150.784 156.761C150.784 157.417 150.719 158.03 150.59 158.6C150.461 159.171 150.24 159.671 149.927 160.101C149.625 160.521 149.227 160.854 148.731 161.102C148.246 161.349 147.637 161.473 146.904 161.473ZM145.271 155.389H144.382V158.374H145.271C145.745 158.374 146.085 158.326 146.29 158.229C146.505 158.132 146.613 157.906 146.613 157.551V156.196C146.613 155.852 146.505 155.631 146.29 155.534C146.085 155.437 145.745 155.389 145.271 155.389Z" fill="#283D3B"/>
<path d="M156.313 164.394H152.433V152.29H156.313V164.394Z" fill="#283D3B"/>
<path d="M168.719 161.295V164.394H158.259V161.973L163.222 155.502L163.173 155.389H159.099L158.744 152.29H168.638V154.711L163.723 161.182L163.788 161.295H168.719Z" fill="#283D3B"/>
<path d="M180.634 161.295V164.394H170.174V161.973L175.137 155.502L175.089 155.389H171.015L170.659 152.29H180.553V154.711L175.638 161.182L175.703 161.295H180.634Z" fill="#283D3B"/>
<path d="M185.905 162.474L185.468 164.394H181.378L184.514 152.29H190.512L193.649 164.394H189.558L189.106 162.474H185.905ZM187.618 156.002H187.408L186.616 159.391H188.394L187.618 156.002Z" fill="#283D3B"/>
<rect x="5.5" y="25.5" width="183" height="118" stroke="#C44536" stroke-width="11"/>
</svg>

<svg xmlns="http://www.w3.org/2000/svg" fill="none" viewBox="0 0 194 169"><path fill="#283D3B" d="M138.652 37.581q6.837 0 12.642 3.483 5.676 3.612 9.159 9.546 3.354 5.934 3.354 13.029v5.805q0 .645-.516.645h-14.448q-.645 0-.645-.645v-5.805q0-4.257-2.709-7.353-2.709-2.967-6.837-2.967-4.515 0-7.095 3.096-2.58 3.225-2.58 7.224v3.483q0 3.999 2.58 7.224 2.451 3.225 6.321 3.225h5.031q.645 0 .645.645l-.129 14.448q0 .516-.516.516h-5.031q-3.483 0-6.192 2.709t-2.709 7.095v1.806q0 4.128 2.838 6.966 2.709 2.967 6.837 2.967 3.999 0 6.837-2.967 2.709-2.838 2.709-6.966v-6.192q0-.645.516-.645h14.448q.516 0 .516.645v6.837q0 7.095-3.483 12.642-3.612 5.547-9.288 8.772-5.805 3.354-12.255 3.354-6.966 0-12.642-3.483-5.805-3.354-9.159-9.03t-3.354-12.513v-2.064q0-5.676 1.935-9.804 1.806-4.128 5.16-7.869a31.3 31.3 0 0 1-5.289-8.514 23.7 23.7 0 0 1-1.935-9.417v-3.87q0-7.224 3.483-13.158 3.354-5.934 9.159-9.417 5.676-3.483 12.642-3.483m-84.304 93.838q-6.837 0-12.642-3.483-5.676-3.612-9.159-9.546-3.354-5.934-3.354-13.029v-5.805q0-.645.516-.645h14.448q.645 0 .645.645v5.805q0 4.257 2.709 7.353 2.709 2.967 6.837 2.967 4.515 0 7.095-3.096 2.58-3.225 2.58-7.224v-3.483q0-3.999-2.58-7.224-2.451-3.225-6.321-3.225h-5.031q-.645 0-.645-.645l.129-14.448q0-.516.516-.516h5.031q3.483 0 6.192-2.709t2.709-7.095V64.21q0-4.128-2.838-6.966-2.709-2.967-6.837-2.967-3.999 0-6.837 2.967-2.709 2.838-2.709 6.966v6.192q0 .645-.516.645H29.838q-.516 0-.516-.645v-6.837q0-7.095 3.483-12.642 3.612-5.547 9.288-8.772 5.805-3.354 12.255-3.354 6.966 0 12.642 3.483 5.805 3.354 9.159 9.03t3.354 12.513v2.064q0 5.676-1.935 9.804-1.806 4.128-5.16 7.869a31.3 31.3 0 0 1 5.289 8.514 23.7 23.7 0 0 1 1.935 9.417v3.87q0 7.224-3.483 13.158-3.354 5.934-9.159 9.417-5.676 3.483-12.642 3.483M89.62 130q-.645 0-.645-.645l.13-88.623q0-.516.515-.516h14.448q.516 0 .516.516l.129 88.623q0 .645-.516.645zM6.432 164.394H1V152.29h5.432q1.634 0 2.732.339 1.1.323 1.762 1.049.663.726.938 1.872.291 1.146.291 2.776t-.291 2.792q-.275 1.146-.938 1.872t-1.762 1.065-2.732.339m.065-9.005H4.88v5.906h1.617q.808 0 1.148-.177.355-.193.355-.855v-3.841q0-.662-.356-.839-.339-.194-1.147-.194m15.268 1.63v2.808h-3.88v1.468h4.753v3.099h-8.633V152.29h8.536l-.485 3.099h-4.171v1.63zM33.4 152.29v3.099h-2.812v9.005h-3.88v-9.005h-2.813v-3.099zm10.018 8.069 2.101 4.035h-4.268l-1.584-3.599h-.84v3.599h-3.88V152.29h6.11q4.17 0 4.171 4.245 0 2.904-1.81 3.824m-3.703-4.97h-.889v2.421h.89q.71 0 1.018-.146.323-.144.323-.661v-.807q0-.516-.323-.662-.307-.145-1.019-.145m7.07 2.969q0-1.662.275-2.856.29-1.21.953-1.985.68-.774 1.779-1.146 1.1-.37 2.716-.371 1.633 0 2.716.371 1.1.372 1.762 1.146.679.774.954 1.985.29 1.194.29 2.856 0 1.582-.258 2.776-.259 1.178-.921 1.969-.647.79-1.763 1.194-1.099.387-2.78.387t-2.797-.387q-1.1-.404-1.762-1.194-.646-.791-.906-1.969-.258-1.194-.258-2.776m4.17-2.017v5.035h1.617q.81 0 1.148-.177.356-.194.356-.856v-5.035h-1.633q-.776 0-1.132.194-.355.177-.355.839m12.996 8.053h-3.88V152.29h3.88zm11.063-12.104v3.099h-2.813v9.005h-3.88v-9.005H65.51v-3.099zm6.393 11.894.55-3.195q1.778.435 3.216.436.727 0 1.278-.017.566-.031 1.002-.096v-.969l-1.746-.145q-1.18-.113-1.972-.387-.792-.275-1.278-.743a2.9 2.9 0 0 1-.678-1.145q-.195-.678-.195-1.582 0-1.242.26-2.066.258-.838.824-1.339.565-.516 1.455-.726.905-.21 2.198-.21 2.571 0 4.656.484l-.485 3.099q-1.81-.291-2.893-.291-1.084 0-1.843.097v.952l1.39.129q1.277.13 2.134.436.857.29 1.374.775.534.483.744 1.145.225.662.226 1.517 0 1.227-.323 2.066-.324.839-.776 1.275a2.7 2.7 0 0 1-.922.565 6.5 6.5 0 0 1-1.164.29q-.614.097-1.245.113-.614.033-1.115.032-1.261 0-2.425-.129a21 21 0 0 1-2.247-.371m20.796-11.894v3.099h-2.813v9.005h-3.88v-9.005h-2.813v-3.099zm.576 0h4.284l1.067 4.261h.146l1.083-4.261h4.284l-3.492 8.812v3.292h-3.88v-3.292zm20.077 9.005v3.099h-7.76V152.29h3.88v9.005zm9.31-4.276v2.808h-3.88v1.468h4.753v3.099h-8.633V152.29h8.536l-.485 3.099h-4.171v1.63zm14.737 4.454h-2.522v2.921h-3.88V152.29h6.111q4.171 0 4.171 4.471a8.3 8.3 0 0 1-.194 1.839 4 4 0 0 1-.663 1.501q-.452.63-1.196 1.001-.728.37-1.827.371m-1.633-6.084h-.889v2.985h.889q.711 0 1.019-.145.323-.145.323-.678v-1.355q0-.516-.323-.662-.308-.145-1.019-.145m11.042 9.005h-3.88V152.29h3.88zm12.406-3.099v3.099h-10.46v-2.421l4.963-6.471-.049-.113h-4.074l-.355-3.099h9.894v2.421l-4.915 6.471.065.113zm11.915 0v3.099h-10.46v-2.421l4.963-6.471-.048-.113h-4.074l-.356-3.099h9.894v2.421l-4.915 6.471.065.113zm5.271 1.179-.437 1.92h-4.09l3.136-12.104h5.998l3.137 12.104h-4.091l-.452-1.92zm1.713-6.472h-.21l-.792 3.389h1.778z"/><path stroke="#C44536" stroke-width="11" d="M5.5 25.5h183v118H5.5z"/></svg>
